src/24/panel/scroll-lock-on.svg

<svg xmlns="http://www.w3.org/2000/svg" width="24" height="24" version="1.1">
 <defs>
  <style id="current-color-scheme" type="text/css">
   .ColorScheme-Text { color:#dfdfdf; } .ColorScheme-Highlight { color:#4285f4; }
  </style>
 </defs>
 <path fill-rule="evenodd" style="fill:currentColor" class="ColorScheme-Text" d="m7 4a2.0002 2.0002 0 0 0 -1.9883 1.7793l-1 8.9997a2.0002 2.0002 0 0 0 1.9883 2.221h12a2.0002 2.0002 0 0 0 1.988 -2.221l-1-8.9997a2.0002 2.0002 0 0 0 -1.988 -1.7793h-10zm4 2h2v4h3l-4 5.121-4-5.121h3v-4zm-7 11.203v0.547c0 1.212 1.0381 2.25 2.25 2.25h11.5c1.212 0 2.25-1.038 2.25-2.25v-0.547c-0.532 0.485-1.225 0.797-2 0.797h-12c-0.7746 0-1.4684-0.312-2-0.797z"/>
</svg>

<svg xmlns="http://www.w3.org/2000/svg" width="24" height="24"><defs><style id="current-color-scheme" type="text/css"></style></defs><path fill-rule="evenodd" d="M7 4a2 2 0 0 0-1.988 1.78l-1 8.999A2 2 0 0 0 6 17h12a2 2 0 0 0 1.988-2.221l-1-9A2 2 0 0 0 17 4H7zm4 2h2v4h3l-4 5.121L8 10h3V6zM4 17.203v.547C4 18.962 5.038 20 6.25 20h11.5c1.212 0 2.25-1.038 2.25-2.25v-.547A2.96 2.96 0 0 1 18 18H6a2.96 2.96 0 0 1-2-.797z" fill="currentColor" color="#bebebe"/></svg>
